Yaru++/mimetypes/16/text-x-javascript.svg

<svg height="16" viewBox="0 0 4.233125 4.233125" width="16" xmlns="http://www.w3.org/2000/svg" xmlns:xlink="http://www.w3.org/1999/xlink"><linearGradient id="a" gradientUnits="userSpaceOnUse" x1="2.116711" x2="2.116711" y1=".264569" y2="3.968554"><stop offset="0" stop-color="#fff"/><stop offset=".125" stop-color="#fff" stop-opacity=".098039"/><stop offset=".92500001" stop-color="#fff" stop-opacity=".098039"/><stop offset="1" stop-color="#fff" stop-opacity=".498039"/></linearGradient><linearGradient id="b" gradientTransform="matrix(0 -.00953618 .00953591 0 -.942985 4.473643)" gradientUnits="userSpaceOnUse" x1="459.03448" x2="35.310345" y1="419.23337" y2="207.36522"><stop offset="0" stop-color="#f2f2f2"/><stop offset="1" stop-color="#f9f9f9"/></linearGradient><path d="m1.3483185.26457024c-.1902366 0-.3444309.003678-.48573255.0273883-.14130436.02373198-.28264046.07309551-.39065659.18085764-.10801348.10775949-.15783472.24955069-.18137354.39116989-.02354675.14162183-.02677187.29644573-.02584852.48728563v.7652908 1.0314115c-.00079371.1900038.002381.3445631.0258485.4857352.0235468.1416192.0733574.2834104.18137354.3911699.10801613.1077621.24935223.1571389.39065659.1808576.14130167.023732.29549597.027388.48573257.027388h1.5367831c.1902367 0 .3440949-.00362.4852167-.027388.1411245-.0237584.2824765-.0735294.3901381-.1813736.1076616-.1078441.1571653-.249413.1808576-.3906539.0236949-.1412435.0273883-.2951308.0273883-.4857352v-1.0314115-.7937109l-1.0582812-1.05828136z" opacity=".1"/><path d="m1.3485196.26457024c-.74283142 0-.82275812.0762994-.81911762.82063366v1.0313586 1.0313586c-.003651.7443342.0762862.8206336.81911762.8206336h1.5364921c.7428341 0 .8191203-.076289.8191203-.8206336v-1.0313586-1.0582813l-.7937109-.79371096z" fill="none" opacity=".2" stroke="#000" stroke-width=".529141"/><path d="m1.3485196.26457024c-.74283142 0-.82275812.0762994-.81911762.82063366v1.0313586 1.0313586c-.003651.7443342.0762862.8206336.81911762.8206336h1.5364921c.7428341 0 .8191203-.076289.8191203-.8206336v-1.0313586-1.0582813l-.7937109-.79371096z" fill="url(#b)"/><path d="m2.4409066 2.9263964c.06469.1056244.1488552.1832678.297713.1832678.1250492 0 .2049336-.062499.2049336-.1488578 0-.1034841-.082078-.1401376-.2197178-.2003406l-.075448-.032373c-.217781-.092782-.362456-.2090132-.362456-.454725 0-.2263425.1724628-.3986492.4419832-.3986492.1918823 0 .3298293.06678.4292336.2416373l-.2350067.1508953c-.0517447-.0927822-.1075637-.1293299-.1942237-.1293299-.088396 0-.1444237.05607-.1444237.1293299 0 .090536.056076.1271895.1855617.1832678l.075448.03232c.2564216.1099581.4011971.2220592.4011971.4740968 0 .2717111-.2134447.4205689-.5000961.4205689-.2802779 0-.4613498-.133563-.5499517-.3086239zm-1.2094806.02614c.047411.08412.090536.1552287.1942264.1552287.09915 0 .1617027-.038791.1617027-.1896334v-1.0261947h.3017901v1.0302659c0 .3124999-.1832176.4547302-.4506453.4547302-.2416373 0-.3815738-.1250518-.45273798-.2756664z" fill="#eab305" stroke-width=".26457"/><path d="m2.1167101.26457024v3.70398446h.7683915c.7428341 0 .8190304-.076236.8190304-.8205807v-1.0314115-1.0582813l-.7937109-.79371096z" fill="#fff" opacity=".2"/><path d="m.52928821 2.1165625v1.0314115c-.003651.7443342.0761989.8205807.81903029.8205807h1.5367831c.7428341 0 .8190304-.076236.8190304-.8205807v-1.0314115z" fill="#fff" opacity=".2"/><path d="m1.3483185.26457024c-.74283139 0-.82267079.0762465-.81903029.82058076v1.0314115 1.0314115c-.003651.7443342.0761989.8205807.81903029.8205807h1.5367831c.7428341 0 .8190304-.076236.8190304-.8205807v-1.0314115-1.0582813l-.7937109-.79371096zm0 .26457031h1.5621026l.5291406.52914065v1.0582813 1.0314115c0 .1815667-.00582.3159975-.019631.3984058-.013811.082406-.029841.09959-.034103.1038651-.00426.00426-.021245.020293-.1033491.034103-.082112.013816-.2161962.019636-.3973767.019636h-1.5367834c-.1811777 0-.3153969-.0063-.39788728-.02016-.082493-.013837-.1000155-.029235-.10438091-.033587-.004365-.00437-.0199486-.021324-.0335898-.1033491-.0136254-.08203-.0194988-.216564-.0185993-.3978899v-.0005292-1.0319062-1.0319274-.0005291c-.00079371-.18132863.004974-.31586003.0185993-.39789003.0136254-.08203.0292218-.0989916.0335898-.10334912.004365-.004365.02188-.0197369.10438091-.0335872.08249-.013837.21670958-.0201603.39788728-.0201603z" fill="url(#a)" opacity=".4"/><path d="m3.704132 1.3228516v-.2645704l-.7937109-.79371096h-.2645704v.40494339.0155303.00833c0 .54761027.073304.63205057.6221715.62936517z" opacity=".2"/><path d="m3.704132 1.0581807-.7937109-.79361046v.29438474.0128317.006879c0 .45177772.020822.48176412.4736364.47954962z" fill="#faf8f6"/></svg>

<?xml version="1.0" encoding="UTF-8" standalone="no"?>
<svg
   xmlns:dc="http://purl.org/dc/elements/1.1/"
   xmlns:cc="http://creativecommons.org/ns#"
   xmlns:rdf="http://www.w3.org/1999/02/22-rdf-syntax-ns#"
   xmlns:svg="http://www.w3.org/2000/svg"
   xmlns="http://www.w3.org/2000/svg"
   xmlns:xlink="http://www.w3.org/1999/xlink"
   xmlns:sodipodi="http://sodipodi.sourceforge.net/DTD/sodipodi-0.dtd"
   xmlns:inkscape="http://www.inkscape.org/namespaces/inkscape"
   height="16"
   viewBox="0 0 4.233125 4.233125"
   width="16"
   version="1.1"
   id="svg21"
   sodipodi:docname="text-x-javascript.svg"
   inkscape:version="0.92.5 (2060ec1f9f, 2020-04-08)">
  <metadata
     id="metadata27">
    <rdf:RDF>
      <cc:Work
         rdf:about="">
        <dc:format>image/svg+xml</dc:format>
        <dc:type
           rdf:resource="http://purl.org/dc/dcmitype/StillImage" />
      </cc:Work>
    </rdf:RDF>
  </metadata>
  <defs
     id="defs25">
    <linearGradient
       gradientTransform="matrix(0.26457031,0,0,0.26457031,-84.662351,-62.438594)"
       inkscape:collect="always"
       xlink:href="#linearGradient927"
       id="linearGradient993"
       x1="328"
       y1="237"
       x2="328"
       y2="251"
       gradientUnits="userSpaceOnUse" />
    <linearGradient
       inkscape:collect="always"
       id="linearGradient927">
      <stop
         style="stop-color:#ffffff;stop-opacity:1;"
         offset="0"
         id="stop923" />
      <stop
         id="stop933"
         offset="0.125"
         style="stop-color:#ffffff;stop-opacity:0.09803922" />
      <stop
         id="stop931"
         offset="0.92500001"
         style="stop-color:#ffffff;stop-opacity:0.09803922" />
      <stop
         style="stop-color:#ffffff;stop-opacity:0.49803922"
         offset="1"
         id="stop925" />
    </linearGradient>
    <linearGradient
       inkscape:collect="always"
       xlink:href="#linearGradient4338"
       id="linearGradient920"
       gradientUnits="userSpaceOnUse"
       gradientTransform="matrix(0,-0.00953618,0.00953591,0,-0.94298468,4.4736432)"
       x1="459.03448"
       y1="419.23337"
       x2="35.310345"
       y2="207.36522" />
    <linearGradient
       inkscape:collect="always"
       id="linearGradient4338">
      <stop
         style="stop-color:#f2f2f2;stop-opacity:1"
         offset="0"
         id="stop4340" />
      <stop
         style="stop-color:#f9f9f9;stop-opacity:1"
         offset="1"
         id="stop4342" />
    </linearGradient>
  </defs>
  <sodipodi:namedview
     pagecolor="#ffffff"
     bordercolor="#666666"
     borderopacity="1"
     objecttolerance="10"
     gridtolerance="10"
     guidetolerance="10"
     inkscape:pageopacity="0"
     inkscape:pageshadow="2"
     inkscape:window-width="834"
     inkscape:window-height="480"
     id="namedview23"
     showgrid="false"
     inkscape:zoom="14.75"
     inkscape:cx="8"
     inkscape:cy="8"
     inkscape:window-x="0"
     inkscape:window-y="28"
     inkscape:window-maximized="0"
     inkscape:current-layer="svg21" />
  <linearGradient
     id="a"
     gradientTransform="matrix(0 -.00953618 .00953591 0 -.942983 4.473639)"
     gradientUnits="userSpaceOnUse"
     x1="459.03448"
     x2="35.310345"
     y1="419.23337"
     y2="207.36522">
    <stop
       offset="0"
       stop-color="#f2f2f2"
       id="stop2" />
    <stop
       offset="1"
       stop-color="#f9f9f9"
       id="stop4" />
  </linearGradient>
  <path
     style="color:#000000;font-style:normal;font-variant:normal;font-weight:normal;font-stretch:normal;font-size:medium;line-height:normal;font-family:sans-serif;font-variant-ligatures:normal;font-variant-position:normal;font-variant-caps:normal;font-variant-numeric:normal;font-variant-alternates:normal;font-feature-settings:normal;text-indent:0;text-align:start;text-decoration:none;text-decoration-line:none;text-decoration-style:solid;text-decoration-color:#000000;letter-spacing:normal;word-spacing:normal;text-transform:none;writing-mode:lr-tb;direction:ltr;text-orientation:mixed;dominant-baseline:auto;baseline-shift:baseline;text-anchor:start;white-space:normal;shape-padding:0;clip-rule:nonzero;display:inline;overflow:visible;visibility:visible;opacity:0.1;isolation:auto;mix-blend-mode:normal;color-interpolation:sRGB;color-interpolation-filters:linearRGB;solid-color:#000000;solid-opacity:1;vector-effect:none;fill:#000000;fill-opacity:1;fill-rule:nonzero;stroke:none;stroke-width:0.52914065;stroke-linecap:butt;stroke-linejoin:miter;stroke-miterlimit:4;stroke-dasharray:none;stroke-dashoffset:0;stroke-opacity:1;marker:none;color-rendering:auto;image-rendering:auto;shape-rendering:auto;text-rendering:auto;enable-background:accumulate"
     d="m 1.3483185,0.26457024 c -0.1902366,0 -0.3444309,0.003678 -0.48573255,0.0273883 C 0.72128159,0.31569052 0.57994549,0.36505405 0.47192936,0.47281618 0.36391588,0.58057567 0.31409464,0.72236687 0.29055582,0.86398607 0.26700907,1.0056079 0.26378395,1.1604318 0.2647073,1.3512717 V 2.1165625 3.147974 c -7.9371e-4,0.1900038 0.002381,0.3445631 0.0258485,0.4857352 0.0235468,0.1416192 0.0733574,0.2834104 0.18137354,0.3911699 0.10801613,0.1077621 0.24935223,0.1571389 0.39065659,0.1808576 0.14130167,0.023732 0.29549597,0.027388 0.48573257,0.027388 h 1.5367831 c 0.1902367,0 0.3440949,-0.00362 0.4852167,-0.027388 C 3.5114428,4.1819783 3.6527948,4.1322073 3.7604564,4.0243631 3.868118,3.916519 3.9176217,3.7749501 3.941314,3.6337092 3.9650089,3.4924657 3.9687023,3.3385784 3.9687023,3.147974 V 2.1165625 1.3228516 L 2.9104211,0.26457024 Z"
     id="path997"
     inkscape:connector-curvature="0"
     sodipodi:nodetypes="scscccccccsscscscccs" />
  <path
     sodipodi:nodetypes="scccssscccs"
     inkscape:connector-curvature="0"
     id="path928"
     d="m 1.3485196,0.26457024 c -0.74283142,0 -0.82275812,0.0762994 -0.81911762,0.82063366 v 1.0313586 1.0313586 c -0.003651,0.7443342 0.0762862,0.8206336 0.81911762,0.8206336 h 1.5364921 c 0.7428341,0 0.8191203,-0.076289 0.8191203,-0.8206336 V 2.1165625 1.0582812 L 2.9104211,0.26457024 Z"
     style="color:#000000;display:inline;overflow:visible;visibility:visible;opacity:0.2;fill:none;fill-opacity:1;fill-rule:nonzero;stroke:#000000;stroke-width:0.52914065;stroke-miterlimit:4;stroke-dasharray:none;stroke-opacity:1;marker:none;enable-background:accumulate" />
  <path
     style="color:#000000;display:inline;overflow:visible;visibility:visible;fill:url(#linearGradient920);fill-opacity:1;fill-rule:nonzero;stroke:none;stroke-width:0.26457033;marker:none;enable-background:accumulate"
     d="m 1.3485196,0.26457024 c -0.74283142,0 -0.82275812,0.0762994 -0.81911762,0.82063366 v 1.0313586 1.0313586 c -0.003651,0.7443342 0.0762862,0.8206336 0.81911762,0.8206336 h 1.5364921 c 0.7428341,0 0.8191203,-0.076289 0.8191203,-0.8206336 V 2.1165625 1.0582812 L 2.9104211,0.26457024 Z"
     id="path918"
     inkscape:connector-curvature="0"
     sodipodi:nodetypes="scccssscccs" />
  <path
     inkscape:connector-curvature="0"
     d="m 2.4409066,2.9263964 c 0.06469,0.1056244 0.1488552,0.1832678 0.297713,0.1832678 0.1250492,0 0.2049336,-0.062499 0.2049336,-0.1488578 0,-0.1034841 -0.082078,-0.1401376 -0.2197178,-0.2003406 l -0.075448,-0.032373 c -0.217781,-0.092782 -0.362456,-0.2090132 -0.362456,-0.454725 0,-0.2263425 0.1724628,-0.3986492 0.4419832,-0.3986492 0.1918823,0 0.3298293,0.06678 0.4292336,0.2416373 L 2.9221415,2.2672512 C 2.8703968,2.174469 2.8145778,2.1379213 2.7279178,2.1379213 c -0.088396,0 -0.1444237,0.05607 -0.1444237,0.1293299 0,0.090536 0.056076,0.1271895 0.1855617,0.1832678 l 0.075448,0.03232 c 0.2564216,0.1099581 0.4011971,0.2220592 0.4011971,0.4740968 0,0.2717111 -0.2134447,0.4205689 -0.5000961,0.4205689 -0.2802779,0 -0.4613498,-0.133563 -0.5499517,-0.3086239 z m -1.2094806,0.02614 c 0.047411,0.08412 0.090536,0.1552287 0.1942264,0.1552287 0.09915,0 0.1617027,-0.038791 0.1617027,-0.1896334 V 1.891937 h 0.3017901 v 1.0302659 c 0,0.3124999 -0.1832176,0.4547302 -0.4506453,0.4547302 -0.2416373,0 -0.3815738,-0.1250518 -0.45273798,-0.2756664 z"
     id="path9431"
     style="display:inline;fill:#eab305;stroke-width:0.26457033;enable-background:new"
     sodipodi:nodetypes="cssccssccssccsscccssccsscc" />
  <path
     style="color:#000000;display:inline;overflow:visible;visibility:visible;opacity:0.2;fill:#ffffff;fill-opacity:1;fill-rule:nonzero;stroke:none;stroke-width:0.26457033;marker:none;enable-background:accumulate"
     d="M 2.1167101,0.26457024 V 3.9685547 h 0.7683915 c 0.7428341,0 0.8190304,-0.076236 0.8190304,-0.8205807 V 2.1165625 1.0582812 L 2.9104211,0.26457024 Z"
     id="path1009"
     inkscape:connector-curvature="0"
     sodipodi:nodetypes="ccsscccc" />
  <path
     style="color:#000000;display:inline;overflow:visible;visibility:visible;opacity:0.2;fill:#ffffff;fill-opacity:1;fill-rule:nonzero;stroke:none;stroke-width:0.26457033;marker:none;enable-background:accumulate"
     d="M 0.52928821,2.1165625 V 3.147974 c -0.003651,0.7443342 0.0761989,0.8205807 0.81903029,0.8205807 h 1.5367831 c 0.7428341,0 0.8190304,-0.076236 0.8190304,-0.8205807 V 2.1165625 Z"
     id="path1016"
     inkscape:connector-curvature="0" />
  <path
     style="color:#000000;font-style:normal;font-variant:normal;font-weight:normal;font-stretch:normal;font-size:medium;line-height:normal;font-family:sans-serif;font-variant-ligatures:normal;font-variant-position:normal;font-variant-caps:normal;font-variant-numeric:normal;font-variant-alternates:normal;font-feature-settings:normal;text-indent:0;text-align:start;text-decoration:none;text-decoration-line:none;text-decoration-style:solid;text-decoration-color:#000000;letter-spacing:normal;word-spacing:normal;text-transform:none;writing-mode:lr-tb;direction:ltr;text-orientation:mixed;dominant-baseline:auto;baseline-shift:baseline;text-anchor:start;white-space:normal;shape-padding:0;clip-rule:nonzero;display:inline;overflow:visible;visibility:visible;opacity:0.4;isolation:auto;mix-blend-mode:normal;color-interpolation:sRGB;color-interpolation-filters:linearRGB;solid-color:#000000;solid-opacity:1;vector-effect:none;fill:url(#linearGradient993);fill-opacity:1;fill-rule:nonzero;stroke:none;stroke-width:0.52914065;stroke-linecap:butt;stroke-linejoin:miter;stroke-miterlimit:4;stroke-dasharray:none;stroke-dashoffset:0;stroke-opacity:1;marker:none;color-rendering:auto;image-rendering:auto;shape-rendering:auto;text-rendering:auto;enable-background:accumulate"
     clip-path="none"
     d="m 1.3483185,0.26457024 c -0.74283139,0 -0.82267079,0.0762465 -0.81903029,0.82058076 V 2.1165625 3.147974 c -0.003651,0.7443342 0.0761989,0.8205807 0.81903029,0.8205807 h 1.5367831 c 0.7428341,0 0.8190304,-0.076236 0.8190304,-0.8205807 V 2.1165625 1.0582812 L 2.9104211,0.26457024 Z m 0,0.26457031 H 2.9104211 L 3.4395617,1.0582812 V 2.1165625 3.147974 c 0,0.1815667 -0.00582,0.3159975 -0.019631,0.3984058 -0.013811,0.082406 -0.029841,0.09959 -0.034103,0.1038651 -0.00426,0.00426 -0.021245,0.020293 -0.1033491,0.034103 -0.082112,0.013816 -0.2161962,0.019636 -0.3973767,0.019636 H 1.3483185 c -0.1811777,0 -0.3153969,-0.0063 -0.39788728,-0.02016 -0.082493,-0.013837 -0.1000155,-0.029235 -0.10438091,-0.033587 -0.004365,-0.00437 -0.0199486,-0.021324 -0.0335898,-0.1033491 -0.0136254,-0.08203 -0.0194988,-0.216564 -0.0185993,-0.3978899 V 3.1484687 2.1165625 1.0846351 1.084106 c -7.9371e-4,-0.18132863 0.004974,-0.31586003 0.0185993,-0.39789003 0.0136254,-0.08203 0.0292218,-0.0989916 0.0335898,-0.10334912 0.004365,-0.004365 0.02188,-0.0197369 0.10438091,-0.0335872 0.08249,-0.013837 0.21670958,-0.0201603 0.39788728,-0.0201603 z"
     id="path937"
     inkscape:connector-curvature="0"
     sodipodi:nodetypes="scccssscccsscccscccssccccccccsccs" />
  <path
     inkscape:connector-curvature="0"
     style="color:#000000;display:inline;overflow:visible;visibility:visible;opacity:0.2;fill:#000000;fill-opacity:1;fill-rule:nonzero;stroke:none;stroke-width:0.06614863;marker:none;enable-background:accumulate"
     d="M 3.704132,1.3228516 V 1.0582812 L 2.9104211,0.26457024 H 2.6458507 v 0.40494339 0.0155303 0.00833 c 0,0.54761027 0.073304,0.63205057 0.6221715,0.62936517 z"
     id="rect4158-0-3-62-2-3-7-3"
     sodipodi:nodetypes="ccccccscc" />
  <path
     inkscape:connector-curvature="0"
     style="color:#000000;display:inline;overflow:visible;visibility:visible;fill:#faf8f6;fill-opacity:1;fill-rule:nonzero;stroke:none;stroke-width:0.06614863;marker:none;enable-background:accumulate"
     d="M 3.704132,1.0581807 2.9104211,0.26457024 v 0.29438474 0.0128317 0.006879 c 0,0.45177772 0.020822,0.48176412 0.4736364,0.47954962 z"
     id="rect4158-0-3-62-6-5-5"
     sodipodi:nodetypes="ccccscc" />
</svg>
